X: 03055
T: LUCY'S REEL
C: Bob McQuillen 28 Nov 77
B: Bob's Note Book 03 #55
R: reel, march
%D:1977
Z: 2020 John Chambers <jc:trillian.mit.edu>
N: Note: 48 bars!
M: C
L: 1/8
K: Em
GE \
| B,2E2 E2B2 | A6 GA | B2E2 E2G2 | F2 D4 ED |\
| B,2E2 E2B2 | A6 GA | B2d2 e2B2 | B2 A4 Bd |
| e2d2 BAGA | B2G2 E2Bd | e2d2 BGAG | F2A2 D2d2 |\
| e2gf e2d2 | c2ed c2A2 | BcBA G2F2 | E6 :|
|: GA \
| B2G2 E2GA | B2G2 E2GA | B2G2 EdcB | F2A2 D2GA |\
| B2G2 E2GA | B2G2 A3c | B2AG F2B2 | E6 :|
%%begintext align
%% For Lucy Shonk of Dublin, N.H.
%% with love and Best Wishes.
%%endtext

%%sep 1 1 500

%%sep 1 1 500

